X: 85
T: Nakłoń, o Panie, uszu swoich
C: Mikołaj Gomółka
%%abc-version 2.0
%%abcx-abcm2ps-target-version 5.9.1 (29 Sep 2008)
%%abc-creator hum2abc beta
%%abcx-conversion-date 2021/10/04 07:59:09
%%abc-edited-by Anna Matuszewska
%%abcx-initial-encoding-date 2020-02-15
%%humdrum-veritas 501782084
%%humdrum-veritas-data 1337574420
%%linebreak <none>
%%barnumbers 0
L: 1/4
M: C|
N: Derived from pl-wn--sd-xvi-qu-273--086_gomolka-mikolaj--naklon-o-panie-uszu-swoich.krn
%%staves [1 2 3 4]
V: 1
V: 2 clef=alto
V: 3 clef=alto
V: 4 clef=bass
K: F
[V:1] A4D2d4 | 
[V:2] E4F2A2 | 
[V:3] A,4A,2F2 | 
[V:4] A,,4D,2D,2 [|] 
[V:1] ^c2d2B4 | 
[V:2] A2>G2F2G2 | 
[V:3] E4D2G,4 | 
[V:4] A,4B,2G,4 [|] 
[V:1] A2G4 | 
[V:2] D4D4 | 
[V:3] A,2B,4 | 
[V:4] ^F,2G,4 [|] 
[V:1] ^F2A2A2A2 | 
[V:2] D2D2C2C2 | 
[V:3] A,2F2E2F2 | 
[V:4] D,2D,2A,2F,2 [|] 
[V:1] B4A2c3 | 
[V:2] B,CDEF2G2 | 
[V:3] D4D2_E4 | 
[V:4] G,4D,2C,4 [|] 
[V:1] BA2G4 | 
[V:2] G,2F,2G,4 | 
[V:3] D4^C2 | 
[V:4] D,2_E,4 [|] 
[V:1] ^F2A2A2^B2 | 
[V:2] A,2E2^F2G2 | 
[V:3] D4D2D2 | 
[V:4] D,2A,,2D,2G,,2 [|] 
[V:1] c4c2A2 | 
[V:2] G4A2A,2 | 
[V:3] E4F2F2 | 
[V:4] C,4F,3E, [|] 
[V:1] A2A2F3G | 
[V:2] A,2A,2A,4 | 
[V:3] F2E2D4 | 
[V:4] D,2^C,2D,4 [|] 
[V:1] A2d2^c2d2 | 
[V:2] A,2FGA2D2 | 
[V:3] ^C2D2E2F2 | 
[V:4] A,,2B,,2A,,2D,2 [|] 
[V:1] B4A2c2 | 
[V:2] D4D2C2 | 
[V:3] G4F2E2 | 
[V:4] G,,A,,B,,C,D,2A,,2 [|] 
[V:1] B4A4 | 
[V:2] F2G2F4 | 
[V:3] D4D4 | 
[V:4] B,,2G,,2D,4 [|] 
[V:1] A8 |]  
[V:2] E8 |]  
[V:3] ^C8 |]  
[V:4] A,,8 |]  


